X:17
T:New Years in the Light Tower
R:reel
C:Paul S. Cranford
O:Cape Breton Island
S:http://www.cranfordpub.com
D:currently unrecorded
B:currently unpublished in book form
Z:psc
H:                                                        copyrights Cranford Publications, SOCAN
L:1/8
Q:333
M:C|
K:Bb
B,2 Bd cABG|FB,DF GFDF|B,Bdf ecdB|cABG F/F/F FD|
B,2 Bd cABG|F2 DF GFDd|(3(edc) dB cdBG|1FBAc B/B/B Bz:|2FBAc B/B/B B||
|:f|bBdB dfBd|edcB AcFA|BB,FB, DFBd|1cGcB Acfa|
bBdB dfBf|eGcB AcFA|BB,FB, DFBF|GBAc B/B/B B:|
[2cGcB AFEC|B,FDF GEFd|(3(edc) dB cFAc|BB,FB, DFEG|FBAc B/B/B B z|]
